X: 7161
T: Church Island
R: reel
M: 4/4
K: Dminor
|:D>FAd B>AGB|A>FDF E>CA,D|F>EFG A>GAc|f>edc d2 de|
f>edc d>cAc|B>AGB A>FDF|E>CA,D F>EFG|A>FEF D2 fg:|
|:a>fda g>ecg|f>efg a>fdA|D>FAd f>dfa|g>ece g2 fg|
a>fdA D>FAa|g>ecG E>Gcg|f>dAF D>FAf|e>dcA d2(3efg:|

